X: 1
T: Cottage On The Hill, The
M: 4/4
L: 1/8
R: reel
K: Dmaj
|:D2 (3FED ADFA|dfef dcdA|BEcE dEcE|Bdcd BAFE|
D2 (3FED ADFA|dfef d2 fd|eBBB A2 FA|dfag fd d2:|
|:afbf afef|dBBB A2 FA|BEcE dEcE|Bdcd BAFA|
aAgA fAeA|dcdA Bcdf|eBBB A2 FA|dfag fd d2:|
